build/assets/img/svg/icon-video.svg

<svg width="48" height="48" viewBox="0 0 48 48" fill="none" xmlns="http://www.w3.org/2000/svg">
<path d="M33.0265 31.5083V27.1654L37.0784 25.3042V33.3695L33.0265 31.5083Z" fill="#A62E41"/>
<path d="M31.157 17.8589C31.157 20.7714 28.7847 23.1324 25.8583 23.1324C22.9319 23.1324 20.5596 20.7714 20.5596 17.8589C20.5596 14.9465 22.9319 12.5854 25.8583 12.5854C28.7847 12.5854 31.157 14.9465 31.157 17.8589Z" fill="#A62E41"/>
<path fill-rule="evenodd" clip-rule="evenodd" d="M21.3265 17.7966C21.3265 15.2445 23.406 13.1709 25.9771 13.1709C27.333 13.1709 28.5522 13.7473 29.4027 14.6681C29.6221 14.9056 29.9925 14.9203 30.23 14.7009C30.4675 14.4815 30.4822 14.1111 30.2628 13.8736C29.1993 12.7222 27.6722 12 25.9771 12C23.0438 12 20.6137 14.1615 20.2134 16.9763C19.44 15.9208 18.1884 15.2358 16.7777 15.2358C14.4332 15.2358 12.5278 17.1281 12.5278 19.4683C12.5278 20.7105 13.0648 21.8266 13.9193 22.6004H12.1467C10.9611 22.6004 10 23.5615 10 24.747V30.5523C10 30.8757 10.2621 31.1378 10.5855 31.1378C10.9088 31.1378 11.1709 30.8757 11.1709 30.5523V24.747C11.1709 24.2081 11.6078 23.7713 12.1467 23.7713H31.0974C31.6363 23.7713 32.0732 24.2081 32.0732 24.747V33.8533C32.0732 34.3922 31.6363 34.8291 31.0974 34.8291H12.1467C11.6078 34.8291 11.1709 34.3922 11.1709 33.8533V32.5826C11.1709 32.2592 10.9088 31.9971 10.5855 31.9971C10.2621 31.9971 10 32.2592 10 32.5826V33.8533C10 35.0389 10.9611 36 12.1467 36H31.0974C32.283 36 33.2441 35.0389 33.2441 33.8533V32.1688L36.2417 33.6484C37.1495 34.0965 38.2124 33.4359 38.2124 32.4235V26.132C38.2124 25.1195 37.1495 24.4589 36.2417 24.907L33.2441 26.3866V24.747C33.2441 23.5615 32.283 22.6004 31.0974 22.6004H29.236C30.7817 21.5588 31.7986 19.7968 31.7986 17.7966C31.7986 17.4732 31.5365 17.2111 31.2131 17.2111C30.8898 17.2111 30.6277 17.4732 30.6277 17.7966C30.6277 20.3486 28.5482 22.4223 25.9771 22.4223C23.406 22.4223 21.3265 20.3486 21.3265 17.7966ZM22.7181 22.6004C21.9561 22.0869 21.3226 21.3983 20.8762 20.5925C20.6599 21.3765 20.2229 22.0691 19.6362 22.6004H22.7181ZM16.7777 16.4067C15.0746 16.4067 13.6988 17.78 13.6988 19.4683C13.6988 21.1565 15.0746 22.5298 16.7777 22.5298C18.4809 22.5298 19.8567 21.1565 19.8567 19.4683C19.8567 17.78 18.4809 16.4067 16.7777 16.4067ZM37.0415 26.132C37.0415 25.9874 36.8896 25.893 36.7599 25.957L33.5195 27.5565C33.4529 27.5893 33.4107 27.6572 33.4107 27.7315V30.824C33.4107 30.8983 33.4529 30.9661 33.5195 30.999L36.7599 32.5985C36.8896 32.6625 37.0415 32.5681 37.0415 32.4235V26.132ZM13.4655 33.1658C13.1421 33.1658 12.88 33.4279 12.88 33.7513C12.88 34.0746 13.1421 34.3367 13.4655 34.3367H15.3849C15.7082 34.3367 15.9703 34.0746 15.9703 33.7513C15.9703 33.4279 15.7082 33.1658 15.3849 33.1658H13.4655ZM18.264 33.1658C17.9407 33.1658 17.6785 33.4279 17.6785 33.7513C17.6785 34.0746 17.9407 34.3367 18.264 34.3367H20.1834C20.5067 34.3367 20.7689 34.0746 20.7689 33.7513C20.7689 33.4279 20.5067 33.1658 20.1834 33.1658H18.264ZM23.0625 33.1658C22.7392 33.1658 22.4771 33.4279 22.4771 33.7513C22.4771 34.0746 22.7392 34.3367 23.0625 34.3367H24.9819C25.3053 34.3367 25.5674 34.0746 25.5674 33.7513C25.5674 33.4279 25.3053 33.1658 24.9819 33.1658H23.0625ZM27.861 33.1658C27.5377 33.1658 27.2756 33.4279 27.2756 33.7513C27.2756 34.0746 27.5377 34.3367 27.861 34.3367H29.7804C30.1038 34.3367 30.3659 34.0746 30.3659 33.7513C30.3659 33.4279 30.1038 33.1658 29.7804 33.1658H27.861Z" fill="black"/>
<path d="M19.9371 19.4104C19.9371 21.1236 18.5417 22.5124 16.8203 22.5124C15.0988 22.5124 13.7034 21.1236 13.7034 19.4104C13.7034 17.6972 15.0988 16.3083 16.8203 16.3083C18.5417 16.3083 19.9371 17.6972 19.9371 19.4104Z" fill="#A62E41"/>
</svg>

<svg width="48" height="48" fill="none" xmlns="http://www.w3.org/2000/svg"><path d="M33.026 31.508v-4.343l4.052-1.86v8.065l-4.052-1.862zm-1.869-13.649c0 2.912-2.372 5.273-5.299 5.273-2.926 0-5.298-2.36-5.298-5.273s2.372-5.274 5.298-5.274c2.927 0 5.299 2.361 5.299 5.274z" fill="#A62E41"/><path fill-rule="evenodd" clip-rule="evenodd" d="M21.326 17.797c0-2.553 2.08-4.626 4.651-4.626 1.356 0 2.575.576 3.426 1.497a.585.585 0 00.86-.794A5.819 5.819 0 0025.977 12a5.815 5.815 0 00-5.764 4.976 4.25 4.25 0 00-3.435-1.74c-2.345 0-4.25 1.892-4.25 4.232 0 1.242.537 2.359 1.391 3.132h-1.772A2.147 2.147 0 0010 24.747v5.805a.585.585 0 101.17 0v-5.805c0-.539.438-.976.977-.976h18.95c.54 0 .976.437.976.976v9.106a.976.976 0 01-.976.976h-18.95a.976.976 0 01-.976-.976v-1.27a.585.585 0 10-1.171 0v1.27C10 35.04 10.961 36 12.147 36h18.95a2.147 2.147 0 002.147-2.147V32.17l2.998 1.48a1.366 1.366 0 001.97-1.226v-6.291a1.366 1.366 0 00-1.97-1.225l-2.998 1.48v-1.64a2.147 2.147 0 00-2.147-2.147h-1.861a5.783 5.783 0 002.563-4.803.585.585 0 10-1.171 0c0 2.552-2.08 4.625-4.65 4.625-2.572 0-4.652-2.073-4.652-4.625zm1.392 4.803a5.834 5.834 0 01-1.842-2.008 4.228 4.228 0 01-1.24 2.008h3.082zm-5.94-6.193a3.07 3.07 0 00-3.08 3.061 3.07 3.07 0 003.08 3.062 3.07 3.07 0 003.079-3.062 3.07 3.07 0 00-3.08-3.061zm20.264 9.725a.195.195 0 00-.282-.175l-3.24 1.6a.195.195 0 00-.11.175v3.092c0 .074.043.142.11.175l3.24 1.6c.13.064.282-.03.282-.175v-6.292zm-23.577 7.034a.585.585 0 100 1.17h1.92a.585.585 0 000-1.17h-1.92zm4.799 0a.586.586 0 000 1.17h1.92a.585.585 0 100-1.17h-1.92zm4.799 0a.585.585 0 000 1.17h1.919a.585.585 0 100-1.17h-1.92zm4.798 0a.585.585 0 000 1.17h1.92a.585.585 0 100-1.17h-1.92z" fill="#000"/><path d="M19.937 19.41a3.11 3.11 0 01-3.117 3.102 3.11 3.11 0 01-3.117-3.102 3.11 3.11 0 013.117-3.102 3.11 3.11 0 013.117 3.102z" fill="#A62E41"/></svg>
